X:23
T:Lo Filho Del Poyson
M:2/4
L:1/8
N:La Bourre 4th edition 1929, page 37
Z:Steve Mansfield www.lesession.co.uk May 2012
K:G
D2 | G G G G | G2 A2 | B B B B | B2 G2 |
d2 d2 | c2 A2 | B4 | A2 z D | G G G G | G2 A2 |
B B B B | c2 G2 | d2 d2 | c2 G2 | B4 | A2 z2 |
d4 | A2 B2 | c4 | c z G A | B2 B2 | c2 B2 | (A4 |
A2) z D | G G B B | A A c2 | B B A A | G2 z2 |]

